packages/icons/web/refresh_large.svg

<svg width="24" height="24" viewBox="0 0 24 24" fill="none" xmlns="http://www.w3.org/2000/svg">
<path d="M4 13.9989C4.45763 15.7442 5.50075 17.2863 6.96029 18.3752C8.41982 19.4641 10.2102 20.036 12.0414 19.9982C13.8725 19.9605 15.637 19.3153 17.0489 18.1671C18.4608 17.019 19.4374 15.4353 19.8203 13.6727C20.2033 11.91 19.9701 10.0718 19.1587 8.45583C18.3473 6.83989 17.0052 5.54097 15.3499 4.7696C13.6945 3.99822 11.823 3.7996 10.0386 4.20592C8.25424 4.61225 6.66157 5.5997 5.51875 7.00824L4 8.92308" stroke="#212933" stroke-width="2" stroke-linecap="round" stroke-linejoin="round"/>
<path d="M3.5 4.5L3.5 9.5L8 9.5" stroke="#212933" stroke-width="2" stroke-linecap="round" stroke-linejoin="round"/>
</svg>

<svg width="24" height="24" fill="none" xmlns="http://www.w3.org/2000/svg">
    <path d="M4 13.999a7.994 7.994 0 002.96 4.376 8.217 8.217 0 005.081 1.623 8.206 8.206 0 005.008-1.83 7.98 7.98 0 002.771-4.495 7.888 7.888 0 00-.661-5.217 8.069 8.069 0 00-3.81-3.686 8.249 8.249 0 00-5.31-.564 8.146 8.146 0 00-4.52 2.802L4 8.923" stroke="currentColor" stroke-width="2" stroke-linecap="round" stroke-linejoin="round"/>
    <path d="M3.5 4.5v5H8" stroke="currentColor" stroke-width="2" stroke-linecap="round" stroke-linejoin="round"/>
</svg>
